frontend/public/assets/material-icons/folder-scala-open.svg

<svg xmlns="http://www.w3.org/2000/svg" viewBox="0 0 32 32">
  <path d="M28.96692,12H9.44152a2,2,0,0,0-1.89737,1.36754L4,24V10H28a2,2,0,0,0-2-2H15.1241a2,2,0,0,1-1.28038-.46357L12.5563,6.46357A2,2,0,0,0,11.27592,6H4A2,2,0,0,0,2,8V24a2,2,0,0,0,2,2H26l4.80523-11.21213A2,2,0,0,0,28.96692,12Z" style="fill: #f44336"/>
  <path d="M18,26v4c2.28125-.78125,8.71252-1.025,10-2V24C26.71252,24.975,20.28125,25.21875,18,26Z" style="fill: #ffcdd2;fill-rule: evenodd"/>
  <path d="M18,20v4c2.28125-.78125,8.71252-1.025,10-2V18C26.71252,18.975,20.28125,19.21875,18,20Z" style="fill: #ffcdd2;fill-rule: evenodd"/>
  <path d="M18,14v4c2.28125-.78125,8.71252-1.025,10-2V12C26.71252,12.975,20.28125,13.21875,18,14Z" style="fill: #ffcdd2;fill-rule: evenodd"/>
</svg>

<svg xmlns="http://www.w3.org/2000/svg" viewBox="0 0 32 32"><path fill="#f44336" d="M28.967 12H9.442a2 2 0 0 0-1.898 1.368L4 24V10h24a2 2 0 0 0-2-2H15.124a2 2 0 0 1-1.28-.464l-1.288-1.072A2 2 0 0 0 11.276 6H4a2 2 0 0 0-2 2v16a2 2 0 0 0 2 2h22l4.805-11.212A2 2 0 0 0 28.967 12"/><path fill="#ffcdd2" d="M18 26v4c2.281-.781 8.713-1.025 10-2v-4c-1.287.975-7.719 1.219-10 2m0-6v4c2.281-.781 8.713-1.025 10-2v-4c-1.287.975-7.719 1.219-10 2m0-6v4c2.281-.781 8.713-1.025 10-2v-4c-1.287.975-7.719 1.219-10 2"/></svg>
